X: 55
T:Humors of Cork (#165), The
M:6/8
L:1/8
S:Sergt. James O'Neill manuscripts
K:G
D|DEF GAB|Bgf efg|dBG AGF|G/2A/2BG AFD|
DEF GAB|Bgf/2g/2 efg|dBG AGF|DGF G2:|
|:d|gfe agf|gfe dcB|ceg dBG|A/2B/2cA BGE|
DEF GAB|Bgf/2g/2 efg|dBG AGF|DGF G2:||

